app/dist/common/images/abo-wind-ag.svg

<svg height="18" viewBox="0 0 18 18" width="18" xmlns="http://www.w3.org/2000/svg"><path d="m0 0h18v18h-18z" fill="#f0f3fa"/><path d="m3.94 11h-.94l2.12-4h1.14l.74 4h-.94l-.5-3.09h-.04zm.22-1.55h2.22l-.12.66h-2.22z" fill="#f78825"/><path d="m7.7 11-.7-4h1.35l.3 2.78h.04l1.73-2.78h1.16l.39 2.79h.05l1.63-2.79h1.35l-2.64 4h-1.2l-.47-2.62h-.04l-1.75 2.62z" fill="#646567"/></svg>

<!-- by TradingView --><svg width="18" height="18" viewBox="0 0 18 18" xmlns="http://www.w3.org/2000/svg"><path fill="#F0F3FA" d="M0 0h18v18H0z"/><path d="M3.94 11H3l2.12-4h1.14L7 11h-.94l-.5-3.09h-.04L3.94 11Zm.22-1.55h2.22l-.12.66H4.04l.12-.66Z" fill="#F78825"/><path d="M7.7 11 7 7h1.35l.3 2.78h.04L10.42 7h1.16l.39 2.79h.05L13.65 7H15l-2.64 4h-1.2l-.47-2.62h-.04L8.9 11H7.7Z" fill="#646567"/></svg>
